X: 3348
M: C
L: 1/8
K: G
(BA) |\
|: d2 |\
gfga gdBd | gbag fedB |\
gfga gdBd | gbag fedc |\
cBcd efaf | g2g2 g2 :|


